X: 12
T: Down Yonder #1
I: Down Yonder	S-D	D	square
C: S-D
M: C|
Z: Transcribed to abc by Mary Lou Knack
R: square
K: D
"D"FFFE- EDE=F| ^FAFD- Ddc=c| "G"BBBB AGA^A| BdBG- G3E|
"D"FD/D/ED FDED| FAFA- A3E| FD/D/ED FDED| FAFA- A3A|
"E"^GG/G/GE FEGE| ^GGEG- GEFG| "A"AA/A/AA/A/ AA3| A2AA AGFE|
"D"F4 EDE=F| ^FAFD- Ddc=c| "G"B4 AGA^A| BdBG- G3E|
"D"FA^EF- FA2E| FA^EF- FA2^A| "E"Bcde- "A"ecA2| "D"d8 |]
% %text 9/1/98		Formerly R-97

#include "LeftHeader.h"
$SmallLMargin
$SmallRMargin
% %scale .8
